static/images/past-sponsors/neo4j.svg

<svg fill="none" height="60" viewBox="0 0 302 60" width="302" xmlns="http://www.w3.org/2000/svg"><g fill="#231f20"><path d="m102.01 15.3218c-8.7378 0-14.5793 5.0742-14.5793 14.9505v7.0297c.8663-.4208 1.8069-.6436 2.8217-.6436 1.0149 0 1.9802.2475 2.8466.6683v-7.0544c0-6.3862 3.5148-9.6782 8.911-9.6782 5.396 0 8.911 3.292 8.911 9.6782v15.3713h5.668v-15.3713c0-9.9258-5.866-14.9505-14.579-14.9505z"/><path d="m119.683 30.8663c0-8.9604 6.584-15.5445 15.891-15.5445s15.792 6.5841 15.792 15.5445v2.104h-25.718c.842 5.2723 4.778 8.1931 9.926 8.1931 3.837 0 6.51-1.1882 8.243-3.7624h6.287c-2.277 5.495-7.649 9.0346-14.53 9.0346-9.331-.0247-15.891-6.5841-15.891-15.5693zm25.693-2.9703c-1.138-4.7277-5.025-7.3019-9.802-7.3019s-8.614 2.6237-9.752 7.3019z"/><path d="m154.411 30.8663c0-8.9604 6.584-15.5445 15.891-15.5445s15.891 6.5841 15.891 15.5445-6.584 15.5446-15.891 15.5446-15.891-6.5594-15.891-15.5446zm26.04 0c0-5.9901-4.06-10.2722-10.174-10.2722-6.113 0-10.173 4.3069-10.173 10.2722 0 5.9654 4.06 10.2723 10.173 10.2723 6.114 0 10.174-4.2822 10.174-10.2723z"/><path d="m218.668 51.5099h.669c3.638 0 5.025-1.6089 5.025-5.7921v-29.4059h5.668v29.0346c0 7.302-2.871 11.0644-10.173 11.0644h-1.189z"/><path d="m215.822 48.4901h-5.669v-7.0049h-14.405c-2.872 0-5.372-1.4109-6.51-3.6634-1.065-2.1287-.768-4.6287.767-6.7327l12.946-16.9802c1.856-2.5 5-3.5148 7.97-2.5247s4.901 3.6386 4.901 6.7574v18.094h4.257v5.0496h-4.257zm-21.04-14.3069c-.173.2227-.272.5198-.272.8416 0 .792.643 1.4356 1.436 1.4356h14.232v-18.2426c0-.9406-.693-1.2871-.99-1.3861-.124-.0248-.297-.0743-.52-.0743-.346 0-.767.1238-1.138.5941z"/></g><path d="m73.9904 31.1386c-.7426.3713-1.4356.9901-1.9307 1.8069-.495.8169-.693 1.6832-.6188 2.5495.0743 1.5595.9406 2.9951 2.3515 3.7872 1.3119.7426 2.797.5693 4.2079.2475 1.7327-.4455 3.2178-.6188 4.7772.3218h.0743c2.6733 1.5594 2.6733 5.4703 0 7.0297 0 0 0 0-.0743 0-1.5594.9406-3.0445.7426-4.7772.3218-1.3614-.3713-2.8465-.5693-4.2079.2475-1.4357.8168-2.2277 2.302-2.3515 3.7871-.0742.8664.1238 1.7327.6188 2.5495.4951.8169 1.1139 1.4357 1.9307 1.807 1.3614.693 3.0446.693 4.4555-.1238 1.3118-.7426 1.9307-2.1782 2.3019-3.5396.4951-1.7327 1.0644-3.1188 2.6733-3.9852 1.5594-.9405 3.0446-.7425 4.7772-.3217 1.3614.3712 2.8466.5693 4.208-.2476 1.4356-.8168 2.2277-2.3019 2.3514-3.7871 0-.1238 0-.198 0-.3218 0-.1237 0-.198 0-.3218-.0742-1.5594-.9406-2.995-2.3514-3.7871-1.3119-.7426-2.7971-.5693-4.208-.2475-1.7326.4455-3.2178.6188-4.7772-.3218s-2.1782-2.2525-2.6733-3.9851c-.3712-1.3614-.9901-2.7476-2.3019-3.5396-1.4357-.5941-3.0941-.5941-4.4555.0742z" fill="#014063"/><path d="m227.208 4.25745c-2.673 0-4.852 2.17821-4.852 4.85148s2.179 4.85147 4.852 4.85147 4.851-2.1782 4.851-4.85147-2.178-4.85148-4.851-4.85148z" fill="#014063"/></svg>

<svg width="302" height="60" viewBox="0 0 302 60" fill="none" xmlns="http://www.w3.org/2000/svg">
<path d="M102.01 15.3218C93.2722 15.3218 87.4307 20.396 87.4307 30.2723V37.302C88.297 36.8812 89.2376 36.6584 90.2524 36.6584C91.2673 36.6584 92.2326 36.9059 93.099 37.3267V30.2723C93.099 23.8861 96.6138 20.5941 102.01 20.5941C107.406 20.5941 110.921 23.8861 110.921 30.2723V45.6436H116.589V30.2723C116.589 20.3465 110.723 15.3218 102.01 15.3218Z" fill="#231F20"/>
<path d="M119.683 30.8663C119.683 21.9059 126.267 15.3218 135.574 15.3218C144.881 15.3218 151.366 21.9059 151.366 30.8663V32.9703H125.648C126.49 38.2426 130.426 41.1634 135.574 41.1634C139.411 41.1634 142.084 39.9752 143.817 37.401H150.104C147.827 42.896 142.455 46.4356 135.574 46.4356C126.243 46.4109 119.683 39.8515 119.683 30.8663ZM145.376 27.896C144.238 23.1683 140.351 20.5941 135.574 20.5941C130.797 20.5941 126.96 23.2178 125.822 27.896H145.376Z" fill="#231F20"/>
<path d="M154.411 30.8663C154.411 21.9059 160.995 15.3218 170.302 15.3218C179.609 15.3218 186.193 21.9059 186.193 30.8663C186.193 39.8267 179.609 46.4109 170.302 46.4109C160.995 46.4109 154.411 39.8515 154.411 30.8663ZM180.451 30.8663C180.451 24.8762 176.391 20.5941 170.277 20.5941C164.164 20.5941 160.104 24.901 160.104 30.8663C160.104 36.8317 164.164 41.1386 170.277 41.1386C176.391 41.1386 180.451 36.8564 180.451 30.8663Z" fill="#231F20"/>
<path d="M218.668 51.5099H219.337C222.975 51.5099 224.362 49.901 224.362 45.7178V16.3119H230.03V45.3465C230.03 52.6485 227.159 56.4109 219.857 56.4109H218.668V51.5099Z" fill="#231F20"/>
<path d="M215.822 48.4901H210.153V41.4852H195.748C192.876 41.4852 190.376 40.0743 189.238 37.8218C188.173 35.6931 188.47 33.1931 190.005 31.0891L202.951 14.1089C204.807 11.6089 207.951 10.5941 210.921 11.5842C213.891 12.5743 215.822 15.2228 215.822 18.3416V36.4356H220.079V41.4852H215.822V48.4901ZM194.782 34.1832C194.609 34.4059 194.51 34.703 194.51 35.0248C194.51 35.8168 195.153 36.4604 195.946 36.4604H210.178V18.2178C210.178 17.2772 209.485 16.9307 209.188 16.8317C209.064 16.8069 208.891 16.7574 208.668 16.7574C208.322 16.7574 207.901 16.8812 207.53 17.3515L194.782 34.1832Z" fill="#231F20"/>
<path d="M73.9904 31.1386C73.2478 31.5099 72.5548 32.1287 72.0597 32.9455C71.5647 33.7624 71.3667 34.6287 71.4409 35.495C71.5152 37.0545 72.3815 38.4901 73.7924 39.2822C75.1043 40.0248 76.5894 39.8515 78.0003 39.5297C79.733 39.0842 81.2181 38.9109 82.7775 39.8515C82.7775 39.8515 82.7775 39.8515 82.8518 39.8515C85.5251 41.4109 85.5251 45.3218 82.8518 46.8812C82.8518 46.8812 82.8518 46.8812 82.7775 46.8812C81.2181 47.8218 79.733 47.6238 78.0003 47.203C76.6389 46.8317 75.1538 46.6337 73.7924 47.4505C72.3567 48.2673 71.5647 49.7525 71.4409 51.2376C71.3667 52.104 71.5647 52.9703 72.0597 53.7871C72.5548 54.604 73.1736 55.2228 73.9904 55.5941C75.3518 56.2871 77.035 56.2871 78.4459 55.4703C79.7577 54.7277 80.3766 53.2921 80.7478 51.9307C81.2429 50.198 81.8122 48.8119 83.4211 47.9455C84.9805 47.005 86.4657 47.203 88.1983 47.6238C89.5597 47.995 91.0449 48.1931 92.4063 47.3762C93.8419 46.5594 94.634 45.0743 94.7577 43.5891C94.7577 43.4653 94.7577 43.3911 94.7577 43.2673C94.7577 43.1436 94.7577 43.0693 94.7577 42.9455C94.6835 41.3861 93.8171 39.9505 92.4063 39.1584C91.0944 38.4158 89.6092 38.5891 88.1983 38.9109C86.4657 39.3564 84.9805 39.5297 83.4211 38.5891C81.8617 37.6485 81.2429 36.3366 80.7478 34.604C80.3766 33.2426 79.7577 31.8564 78.4459 31.0644C77.0102 30.4703 75.3518 30.4703 73.9904 31.1386Z" fill="#014063"/>
<path d="M227.208 4.25745C224.535 4.25745 222.356 6.43566 222.356 9.10893C222.356 11.7822 224.535 13.9604 227.208 13.9604C229.881 13.9604 232.059 11.7822 232.059 9.10893C232.059 6.43566 229.881 4.25745 227.208 4.25745Z" fill="#014063"/>
</svg>
